Adwaita++/apps/scalable/preferences-system-login.svg

<svg fill="none" height="128" viewBox="0 0 128 128" width="128" xmlns="http://www.w3.org/2000/svg" xmlns:xlink="http://www.w3.org/1999/xlink">
  <linearGradient id="paint0_linear" gradientUnits="userSpaceOnUse" x1="116" x2="12" y1="118.999" y2="118.999">
    <stop offset="0" stop-color="#d5d3cf"/>
    <stop offset=".038" stop-color="#e3e2df"/>
    <stop offset=".077" stop-color="#c0bfbc"/>
    <stop offset=".923" stop-color="#c0bfbc"/>
    <stop offset=".962" stop-color="#e3e2df"/>
    <stop offset="1" stop-color="#d5d3cf"/>
  </linearGradient>
  <path d="m108 69h-88c-4.4183 0-8 3.5817-8 8v32c0 4.418 3.5817 8 8 8h88c4.418 0 8-3.582 8-8v-32c0-4.4183-3.582-8-8-8z" fill="url(#paint0_linear)"/>
  <path d="m20 11c-4.432 0-8 3.568-8 8v42 42c0 4.432 3.568 8 8 8h44 44c4.432 0 8-3.568 8-8v-42-42c0-4.432-3.568-8-8-8z" fill="#1a5fb4"/>
  <path d="m103.871 22.6243s-11.9396-.3376-23.8729 5.6903c-3.6474 1.6735-7.6265 4.3515-10.9422 7.6986-5.3618 5.4126-13.6912 15.3769-20.2496 23.4303h-14.5665l-6.6315 10.0419 11.247 3.0694c.0335.4046.1395.9773.4508 1.7506l-1.7473 3.8792s-.6628 1.3388 4.3107 6.6942c5.3053 5.3589 6.9631 4.6864 6.9631 4.6864l4.1213-1.8881c.6173.1941 1.0747.2611 1.3729.2611l3.1268 11.6683 9.9477-6.6942v-15.1528c8.0339-6.5573 17.8921-14.7981 23.2106-19.9929 3.3157-3.3471 5.9686-7.3638 7.9543-11.0457 5.6338-12.0464 5.3048-24.0966 5.3048-24.0966zm-23.2101 30.125c-3.6507 0-6.6315-3.0123-6.6315-6.6942 0-3.6852 2.9808-6.6948 6.6315-6.6948 3.6474 0 6.6319 3.0096 6.6319 6.6948 0 3.6819-2.9878 6.6942-6.6319 6.6942zm-34.8156 40.1664c.6628.3381.9945.6696 1.6579 1.0039-.6634.6696-1.3268 1.6735-1.9929 2.3432-7.6297 7.6982-21.2177 6.6942-21.2177 6.6942s-.995-13.7266 6.6314-21.4186c.6634-.6724 1.6579-1.3354 2.3213-2.0117.3311.6696.6595 1.0045.9945 1.6735-4.9736 6.3567-4.3108 16.067-4.3108 16.067s9.6127.6691 15.9163-4.3515z" fill="#3584e4"/>
  <path d="m102.376 22.6241s-11.5105-.3224-23.0142 5.434c-3.5161 1.5981-7.3519 4.1555-10.5482 7.3519-5.1688 5.1687-13.1982 14.6841-19.5205 22.3748h-14.042l-6.3927 9.5895 10.842 2.9311c.0323.3864.1345.9333.4346 1.6717l-1.6844 3.7045s-.639 1.2785 4.1555 6.3927c5.1143 5.1174 6.7124 4.4753 6.7124 4.4753l3.9729-1.8031c.595.1853 1.036.2494 1.3235.2494l3.0142 11.1427 9.5895-6.3927v-14.4703c7.7446-6.2619 17.2479-14.1315 22.3748-19.0922 3.1963-3.1963 5.7537-7.0321 7.6679-10.5482 5.4307-11.5037 5.1147-23.0111 5.1147-23.0111zm-22.3753 28.768c-3.5192 0-6.3926-2.8766-6.3926-6.3926 0-3.5193 2.8734-6.3932 6.3926-6.3932 3.5161 0 6.3932 2.8739 6.3932 6.3932 0 3.516-2.8803 6.3926-6.3932 6.3926zm-33.5619 38.357c.6389.3229.9586.6395 1.5981.9587-.6395.6394-1.2789 1.5981-1.9211 2.2376-7.355 7.3516-20.4537 6.3927-20.4537 6.3927s-.9592-13.1083 6.3927-20.4538c.6394-.6421 1.5981-1.2752 2.2376-1.921.3192.6394.6358.9592.9587 1.5981-4.7945 6.0703-4.1556 15.3432-4.1556 15.3432s9.2666.639 15.3433-4.1555z" fill="#f6f5f4"/>
</svg>

<svg width="128" height="128" viewBox="0 0 128 128" fill="none" xmlns="http://www.w3.org/2000/svg">
<path d="M108 69H20C15.5817 69 12 72.5817 12 77V109C12 113.418 15.5817 117 20 117H108C112.418 117 116 113.418 116 109V77C116 72.5817 112.418 69 108 69Z" fill="url(#paint0_linear)"/>
<path d="M20 11C15.568 11 12 14.568 12 19V61V103C12 107.432 15.568 111 20 111H64H108C112.432 111 116 107.432 116 103V61V19C116 14.568 112.432 11 108 11H20Z" fill="#1A5FB4"/>
<path d="M103.871 22.6243C103.871 22.6243 91.9314 22.2867 79.9981 28.3146C76.3507 29.9881 72.3716 32.6661 69.0559 36.0132C63.6941 41.4258 55.3647 51.3901 48.8063 59.4435H34.2398L27.6083 69.4854L38.8553 72.5548C38.8888 72.9594 38.9948 73.5321 39.3061 74.3054L37.5588 78.1846C37.5588 78.1846 36.896 79.5234 41.8695 84.8788C47.1748 90.2377 48.8326 89.5652 48.8326 89.5652L52.9539 87.6771C53.5712 87.8712 54.0286 87.9382 54.3268 87.9382L57.4536 99.6065L67.4013 92.9123V77.7595C75.4352 71.2022 85.2934 62.9614 90.6119 57.7666C93.9276 54.4195 96.5805 50.4028 98.5662 46.7209C104.2 34.6745 103.871 22.6243 103.871 22.6243ZM80.6609 52.7493C77.0102 52.7493 74.0294 49.737 74.0294 46.0551C74.0294 42.3699 77.0102 39.3603 80.6609 39.3603C84.3083 39.3603 87.2928 42.3699 87.2928 46.0551C87.2928 49.737 84.305 52.7493 80.6609 52.7493ZM45.8453 92.9157C46.5081 93.2538 46.8398 93.5853 47.5032 93.9196C46.8398 94.5892 46.1764 95.5931 45.5103 96.2628C37.8806 103.961 24.2926 102.957 24.2926 102.957C24.2926 102.957 23.2976 89.2304 30.924 81.5384C31.5874 80.866 32.5819 80.203 33.2453 79.5267C33.5764 80.1963 33.9048 80.5312 34.2398 81.2002C29.2662 87.5569 29.929 97.2672 29.929 97.2672C29.929 97.2672 39.5417 97.9363 45.8453 92.9157Z" fill="#3584E4"/>
<path d="M102.376 22.6241C102.376 22.6241 90.8655 22.3017 79.3618 28.0581C75.8457 29.6562 72.0099 32.2136 68.8136 35.41C63.6448 40.5787 55.6154 50.0941 49.2931 57.7848H35.2511L28.8584 67.3743L39.7004 70.3054C39.7327 70.6918 39.8349 71.2387 40.135 71.9771L38.4506 75.6816C38.4506 75.6816 37.8116 76.9601 42.6061 82.0743C47.7204 87.1917 49.3185 86.5496 49.3185 86.5496L53.2914 84.7465C53.8864 84.9318 54.3274 84.9959 54.6149 84.9959L57.6291 96.1386L67.2186 89.7459V75.2756C74.9632 69.0137 84.4665 61.1441 89.5934 56.1834C92.7897 52.9871 95.3471 49.1513 97.2613 45.6352C102.692 34.1315 102.376 22.6241 102.376 22.6241ZM80.0007 51.3921C76.4815 51.3921 73.6081 48.5155 73.6081 44.9995C73.6081 41.4802 76.4815 38.6063 80.0007 38.6063C83.5168 38.6063 86.3939 41.4802 86.3939 44.9995C86.3939 48.5155 83.5136 51.3921 80.0007 51.3921ZM46.4388 89.7491C47.0777 90.072 47.3974 90.3886 48.0369 90.7078C47.3974 91.3472 46.758 92.3059 46.1158 92.9454C38.7608 100.297 25.6621 99.3381 25.6621 99.3381C25.6621 99.3381 24.7029 86.2298 32.0548 78.8843C32.6942 78.2422 33.6529 77.6091 34.2924 76.9633C34.6116 77.6027 34.9282 77.9225 35.2511 78.5614C30.4566 84.6317 31.0955 93.9046 31.0955 93.9046C31.0955 93.9046 40.3621 94.5436 46.4388 89.7491Z" fill="url(#paint1_linear)"/>
<defs>
<linearGradient id="paint0_linear" x1="116" y1="118.999" x2="12" y2="118.999" gradientUnits="userSpaceOnUse">
<stop stop-color="#D5D3CF"/>
<stop offset="0.038" stop-color="#E3E2DF"/>
<stop offset="0.077" stop-color="#C0BFBC"/>
<stop offset="0.923" stop-color="#C0BFBC"/>
<stop offset="0.962" stop-color="#E3E2DF"/>
<stop offset="1" stop-color="#D5D3CF"/>
</linearGradient>
<linearGradient id="paint1_linear" x1="25.621" y1="61" x2="102.379" y2="61" gradientUnits="userSpaceOnUse">
<stop stop-color="#F6F5F4"/>
</linearGradient>
</defs>
</svg>
